src/sources/forus-platform/resources/_platform-common/assets/img/features/icons/bi-tools/icon-1.svg

<svg width="59" height="58" viewBox="0 0 59 58" fill="none" xmlns="http://www.w3.org/2000/svg">
    <rect x="0.75" width="58" height="58" rx="8" fill="#F7F9FC"/>
    <path d="M43.8487 13.5773C43.5994 13.216 43.1887 13 42.7501 13H28.4167C26.2114 13 24.4167 14.7947 24.4167 17V18.0387L24.5781 18.172L29.9114 23.5053C30.6674 24.26 31.0834 25.2653 31.0834 26.3333C31.0834 27.4013 30.6674 28.4067 29.9114 29.1613L24.5781 34.4947L24.4167 34.628V37C24.4167 39.2053 26.2114 41 28.4167 41H33.0834C33.6367 41 34.1327 40.6587 34.3287 40.1427L43.9954 14.8093C44.1527 14.3987 44.0967 13.9373 43.8487 13.5773Z" fill="#305DFC"/>
    <path d="M21.2393 32.8986C20.742 32.692 20.4167 32.2053 20.4167 31.6666V27.6666H15.0833C14.3473 27.6666 13.75 27.0693 13.75 26.3333C13.75 25.5973 14.3473 25 15.0833 25H20.4167V21C20.4167 20.4613 20.742 19.9746 21.2393 19.768C21.738 19.5613 22.3113 19.676 22.6927 20.0573L28.026 25.3906C28.5473 25.912 28.5473 26.7546 28.026 27.276L22.6927 32.6093C22.3113 32.9906 21.738 33.1053 21.2393 32.8986Z" fill="#092DAA"/>
    <path d="M42.2341 13.132L34.2234 15.8027C33.1421 16.176 32.4167 17.1934 32.4167 18.3334V42.3334C32.4167 43.804 33.6127 45 35.0834 45C35.3687 45 35.6394 44.9587 35.9327 44.868L43.9434 42.1974C45.0247 41.824 45.7501 40.8067 45.7501 39.6667V15.6667C45.7501 13.9107 44.0421 12.576 42.2341 13.132Z" fill="#9CB8F8"/>
</svg>

<svg width="59" height="58" fill="none" xmlns="http://www.w3.org/2000/svg"><rect x=".75" width="58" height="58" rx="8" fill="#F7F9FC"/><path d="M43.849 13.577A1.335 1.335 0 0 0 42.75 13H28.417c-2.206 0-4 1.795-4 4v1.039l.161.133 5.333 5.333a3.97 3.97 0 0 1 1.172 2.828 3.97 3.97 0 0 1-1.172 2.828l-5.333 5.334-.161.133V37c0 2.205 1.794 4 4 4h4.666c.554 0 1.05-.341 1.246-.857l9.666-25.334c.158-.41.102-.872-.146-1.232Z" fill="#305DFC"/><path d="M21.24 32.899a1.335 1.335 0 0 1-.823-1.232v-4h-5.334a1.334 1.334 0 0 1 0-2.667h5.334v-4a1.333 1.333 0 0 1 2.276-.943l5.333 5.334a1.332 1.332 0 0 1 0 1.885l-5.333 5.333a1.333 1.333 0 0 1-1.454.29Z" fill="#092DAA"/><path d="m42.234 13.132-8.01 2.67a2.68 2.68 0 0 0-1.807 2.531v24A2.67 2.67 0 0 0 35.083 45c.286 0 .556-.041.85-.132l8.01-2.67a2.68 2.68 0 0 0 1.807-2.531v-24c0-1.756-1.708-3.091-3.516-2.535Z" fill="#9CB8F8"/></svg>
